X: 748
T: Ferahfezâ Sazsemâîsi
C: Şerif Muhittin Targan
O: Turkey
F: http://compmusic.upf.edu/node/140
N: ferahfeza--sazsemaisi--aksaksemai----serif_muhittin_targan
N: makam= ferahfeza
N: form= sazsemaisi
N: usul= aksaksemai = 10/8
M: 10/8
L: 1/16
K: C _B   
Q: 1/4=120
%%MIDI tuningsystem comma53
f4 fee3ddf edd4c2  | f4 edc3BcB BAA4z2  | 
w:  1. HANE  |   | 
A4 d2d3ccB Bcd3^cd2  | B4 BAA3GGF FGA4z2  | 
w:   |   | 
A4 f2e2 d2c2 B2AB AGA2  | d4 cdc3BAB AGAG FEF2  | 
w:  TESLİM  |   | 
GAGA GFGA BcA2 G2F2 E2D2  | EFEF EDEF2EED D^CDE FGA2  | 
w:   |   | 
A4 f2e2 d2c2 B2AB AGA2  | d4 cdc3BAB AGAG FEF2  | 
w:  TESLİM  |   | 
GAGA GFGA BcA2 G2F2 E2D2  | EFEF EDEF2EED D^CD4z2  | 
w:   |   | 
A4 ^c2B3Adc BAGA G^FG2  | A2B2 d2^c2 BAe2 dcfe dcd2  | 
w:  2. HANE  |   | 
_e4 dccB BAAG GFG2 A2F2  | B4 BAAG GFAG FED2 D^CD2  | 
w:   |   | 
A4 f2e2 d2c2 B2AB AGA2  | d4 cdc3BAB AGAG FEF2  | 
w:  TESLİM  |   | 
GAGA GFGA BcA2 G2F2 E2D2  | EFEF EDEF2EED D^CDE FGA2  | 
w:   |   | 
A4 f2e2 d2c2 B2AB AGA2  | d4 cdc3BAB AGAG FEF2  | 
w:  TESLİM  |   | 
GAGA GFGA BcA2 G2F2 E2D2  | EFEF EDEF2EED D^CD4z2  | 
w:   |   | 
f4 e2f3eag fef4c2  | feed dccB BAAG G^FG4z2  | 
w:  3. HANE  |   | 
d4 d2^c3def edd6  | dccB BAAG GFAG FEF4z2  | 
w:   |   | 
c4 c2_1/4Bc Bcd_e dcc2 f2a2  | c4 B2B3AcB AGA4z2  | 
w:   |   | 
f2e2 d2c3BA3GF3ED2  | EFEF EDEG FEED D^CD4z2  | 
w:   |   | 
A4 f2e2 d2c2 B2AB AGA2  | d4 cdc3BAB AGAG FEF2  | 
w:  TESLİM  |   | 
GAGA GFGA BcA2 G2F2 E2D2  | EFEF EDEF2EED D^CDE FGA2  | 
w:   |   | 
A4 f2e2 d2c2 B2AB AGA2  | d4 cdc3BAB AGAG FEF2  | 
w:  TESLİM  |   | 
GAGA GFGA BcA2 G2F2 E2D2  | EFEF EDEF2EED D^CD4z2  | 
w:   |   | 
z24  | A4d4f3edefga8  | A4d4B3AAGFGA4z4  | \
w:  |  4. HANE  |   | 
f2fed2dcB2BAGABdc3BA4  | 
w:   | 
G3FEFGEF3D^CDECD4z4  | A4d4f3edefga8  | 
w:   |   | 
A4d4B3AAGFGA4z4  | f2fed2dcB2BAGABdc3BA4  | 
w:   |   | 
G3FEFGEF3D^CDECD4z4  | DEFGAB^cdf2fed2dcB3AG4  | 
w:   |   | 
e2edd^cdec2cBBABcA4z4  | (3f2e2d2(3c2B2A2d3c(3B2A2G2A3GF4  | 
w:   |   | 
F3EDEFDE3D^CDECD4z4  | DEFGAB^cdf2fed2dcB3AG4  | 
w:   |   | 
e2edd^cdec2cBBABcA4z4  | (3f2e2d2(3c2B2A2d3c(3B2A2G2A3GF4  | 
w:   |   | 
F3EDEFDE3D^CDECD4z4  | z20  | A4 f2e2 d2c2 B2AB AGA2  | 
w:   |  |  TESLİM  | 
d4 cdc3BAB AGAG FEF2  | GAGA GFGA BcA2 G2F2 E2D2  | 
w:   |   | 
EFEF EDEF2EED D^CDE FGA2  | A4 f2e2 d2c2 B2AB AGA2  | 
w:   |  TESLİM  | 
d4 cdc3BAB AGAG FEF2  | GAGA GFGA BcA2 G2F2 E2D2  | 
w:   |   | 
EFEF EDEF2EED D^CD4z2  | |


